/* XPM */
static char *collectible[] = {
/* columns rows colors chars-per-pixel */
"64 64 3 1 ",
"  c #9C5A3C",
". c #FF7E00",
"X c #22B14C",
/* pixels */
"                                                                ",
"                                                                ",
"                                                                ",
"   XXXXXXXXXXXXXXXXXXXXXXXXXXXXXXXXXXXXXXXXXXXXXXXXXXXXXXXXXX   ",
"   XXXXXXXXXXXXXXXXXXXXXXXXXXXXXXXXXXXXXXXXXXXXXXXXXXXXXXXXXX   ",
"   XXXXXXXXXXXXXXXXXXXXXXXXXXXXXXXXXXXXXXXXXXXXXXXXXXXXXXXXXX   ",
"   XXXXXXXXXXXXXXXXXXXXXXXXXXXXXXXXXXXXXXXXXXXXXXXXXXXXXXXXXX   ",
"   XXXXXXXXXXXXXXXXXXXXXXXXXXXXXXXXXXXXXXXXXXXXXXXXXXXXXXXXXX   ",
"   XXXXXXXXXXXXXXXXXXXXXXXXXXXXXXXXXXXXXXXXXXXXXXXXXXXXXXXXXX   ",
"   XXXXXXXXXXXXXXXXXXXXXXXXX.........XXXXXXXXXXXXXXXXXXXXXXXX   ",
"   XXXXXXXXXXXXXXXXXXXXXX...............XXXXXXXXXXXXXXXXXXXXX   ",
"   XXXXXXXXXXXXXXXXXXXX...................XXXXXXXXXXXXXXXXXXX   ",
"   XXXXXXXXXXXXXXXXXX.......................XXXXXXXXXXXXXXXXX   ",
"   XXXXXXXXXXXXXXXXX.........................XXXXXXXXXXXXXXXX   ",
"   XXXXXXXXXXXXXXX.............................XXXXXXXXXXXXXX   ",
"   XXXXXXXXXXXXXX...............................XXXXXXXXXXXXX   ",
"   XXXXXXXXXXXXX.................................XXXXXXXXXXXX   ",
"   XXXXXXXXXXXXX.................................XXXXXXXXXXXX   ",
"   XXXXXXXXXXXX...................................XXXXXXXXXXX   ",
"   XXXXXXXXXXX.....................................XXXXXXXXXX   ",
"   XXXXXXXXXXX.....................................XXXXXXXXXX   ",
"   XXXXXXXXXX.......................................XXXXXXXXX   ",
"   XXXXXXXXXX.......................................XXXXXXXXX   ",
"   XXXXXXXXX.........................................XXXXXXXX   ",
"   XXXXXXXXX.........................................XXXXXXXX   ",
"   XXXXXXXX...........................................XXXXXXX   ",
"   XXXXXXXX...........................................XXXXXXX   ",
"   XXXXXXXX...........................................XXXXXXX   ",
"   XXXXXXXX...........................................XXXXXXX   ",
"   XXXXXXXX...........................................XXXXXXX   ",
"   XXXXXXXX...........................................XXXXXXX   ",
"   XXXXXXXX...........................................XXXXXXX   ",
"   XXXXXXXX...........................................XXXXXXX   ",
"   XXXXXXXX...........................................XXXXXXX   ",
"   XXXXXXXX...........................................XXXXXXX   ",
"   XXXXXXXX...........................................XXXXXXX   ",
"   XXXXXXXX...........................................XXXXXXX   ",
"   XXXXXXXX...........................................XXXXXXX   ",
"   XXXXXXXX...........................................XXXXXXX   ",
"   XXXXXXXXX.........................................XXXXXXXX   ",
"   XXXXXXXXX.........................................XXXXXXXX   ",
"   XXXXXXXXXX.......................................XXXXXXXXX   ",
"   XXXXXXXXXX.......................................XXXXXXXXX   ",
"   XXXXXXXXXXX.....................................XXXXXXXXXX   ",
"   XXXXXXXXXXX.....................................XXXXXXXXXX   ",
"   XXXXXXXXXXXX...................................XXXXXXXXXXX   ",
"   XXXXXXXXXXXXX.................................XXXXXXXXXXXX   ",
"   XXXXXXXXXXXXX.................................XXXXXXXXXXXX   ",
"   XXXXXXXXXXXXXX...............................XXXXXXXXXXXXX   ",
"   XXXXXXXXXXXXXXX.............................XXXXXXXXXXXXXX   ",
"   XXXXXXXXXXXXXXXXX.........................XXXXXXXXXXXXXXXX   ",
"   XXXXXXXXXXXXXXXXXX.......................XXXXXXXXXXXXXXXXX   ",
"   XXXXXXXXXXXXXXXXXXXX...................XXXXXXXXXXXXXXXXXXX   ",
"   XXXXXXXXXXXXXXXXXXXXXX...............XXXXXXXXXXXXXXXXXXXXX   ",
"   XXXXXXXXXXXXXXXXXXXXXXXXX.........XXXXXXXXXXXXXXXXXXXXXXXX   ",
"   XXXXXXXXXXXXXXXXXXXXXXXXXXXXXXXXXXXXXXXXXXXXXXXXXXXXXXXXXX   ",
"   XXXXXXXXXXXXXXXXXXXXXXXXXXXXXXXXXXXXXXXXXXXXXXXXXXXXXXXXXX   ",
"   XXXXXXXXXXXXXXXXXXXXXXXXXXXXXXXXXXXXXXXXXXXXXXXXXXXXXXXXXX   ",
"   XXXXXXXXXXXXXXXXXXXXXXXXXXXXXXXXXXXXXXXXXXXXXXXXXXXXXXXXXX   ",
"   XXXXXXXXXXXXXXXXXXXXXXXXXXXXXXXXXXXXXXXXXXXXXXXXXXXXXXXXXX   ",
"   XXXXXXXXXXXXXXXXXXXXXXXXXXXXXXXXXXXXXXXXXXXXXXXXXXXXXXXXXX   ",
"                                                                ",
"                                                                ",
"                                                                "
};
