/* XPM */
static char *exit_win[] = {
/* columns rows colors chars-per-pixel */
"64 64 16 1 ",
"  c #1F1008",
". c #261105",
"X c #361502",
"o c #361508",
"O c #3C1A08",
"+ c #401F0C",
"@ c #452514",
"# c #4A2916",
"$ c #4F4F41",
"% c #515143",
"& c #525244",
"* c #555547",
"= c #575749",
"- c #59594B",
"; c #5B5B4D",
": c #5E5E50",
/* pixels */
"$$****$$$$%%$$&&&&&&%%%%%%%%$$$$$$&&&&$$$$$$$$$$&&&&&&&&&&$$$$$$",
"$$****$$$$%%$$&&&&&&%%%%%%%%$$$$$$&&&&$$$$$$$$$$&&&&&&&&&&$$$$$$",
"$$$$****%%&&****************&&&&&&&&****&&&&&&************&&&&$$",
"$$$$***         ************&&&&&&&&****&&&&&&*****          &$$",
"$$$$            ******--==**********************---          &$$",
"$$$$ &********  ******--==**********************--------***  &$$",
"$$%%&&****-   ------====****XXXXXXXXXX**==----;;::::::::;   **&&",
"$$%%&&****   -------====****XXXXXXXXXX**==----;;::::::::  ****&&",
"$$%%&&**   ;;;;;--==**XXXXXXXX++++++XXXXXX==--;;::::::   ;****&&",
"$$%%&&    ;;;;;;--==**XXXXXXXX++++++XXXXXX==--;;:::::   ;;****&&",
"$$%%&   --::::;;--==XXXX++++++@@@@++++++XXXX--;;::::-      ***&&",
"$$%%          ;;--==XXXX++++++@@@@++++++XXXX--;;::::         *&&",
"***          :--==**XX++@@@@@@@@@@@@####++++XXXX----==;;--*  &&&",
"**    **--::::--==**XX++@@@@@@@@@@@@####++++XXXX----==;;--**&&&&",
"%%* &&**--;;--==**XX++##..##@@@@@@##....##++++XXXXXX==;;--**&&$$",
"%%**&&**--;;--==**XX++##..##@@@@@@##....##++++XXXXXX==;;--**&&$$",
"$$%%****----==**XXXX++......######......##@@@@++++XXXX::;;**&&%%",
"$$%%****----==**XXXX++......######......##@@@@++++XXXX::;;**&&%%",
"$$%%**       *==XX++@@##......##......##@@@@@@@@++XXooXX--**&&%%",
"$$%%**       *==XX++@@##......##......##@@@@@@@@++XXooXX--**&&%%",
"%%&&**- =  =**--XX++@@@@@@..........####@@@@@@@@++XXooooXX**&&%%",
"%%&&**--  ==**--XX++@@@@@@..........####@@@@@@@@++XXooooXX**&&%%",
"%%&&**      ====XX++@@@@@@##............####@@@@++XXoooooo**&&$$",
"%%&&**  ==**====XX++@@@@@@##............####@@@@++XXoooooo**&&$$",
"%%&&**==--==----XX@@@@@@@@##................##@@++XXooooooXX$$&&",
"%%&&**==--==----XX@@@@@@@@##................##@@++XXooooooXX$$&&",
"%%&&****----;;XX++++@@####......######......##@@++XXooooooXX%%&&",
"%%&&****----;;XX++++@@####......######......##@@++XXooooooXX%%&&",
"%%$$****--;;;;XX++@@@@##......##########..##@@++XXXXooooooXX%%&&",
"%%$$****--;;;;XX++@@@@##......##########..##@@++XXXXooooooXX%%&&",
"**$$****--;;XXXX@@@@##......####@@@@@@####@@@@XXXXoooooooo&&$$$$",
"**$$****--;;XXXX@@@@##......####@@@@@@####@@@@XXXXoooooooo&&$$$$",
"$$%%&&**--;;XX@@@@####....####@@@@@@@@@@@@@@XXXXooooooooXX**&&$$",
"$$%%&&**--;;XX@@@@####....####@@@@@@@@@@@@@@XXXXooooooooXX**&&$$",
"$$&&****--XXXX@@####....######@@@@@@++@@++XXooooooooooXXXX**&&$$",
"$$&&****--XXXX@@####....######@@@@@@++@@++XXooooooooooXXXX**&&$$",
"%%&&&&**--XX@@@@##......####@@@@@@++++++XXooooooooooXXXX--**&&%%",
"%%&&&&**--XX@@@@##......####@@@@@@++++++XXooooooooooXXXX--**&&%%",
"%%&&****XX@@@@@@##....####@@@@@@++++++XXooooooooooXX--;;--**&&%%",
"%%&&****XX@@@@@@##....####@@@@@@++++++XXooooooooooXX--;;--**&&%%",
"%%&&**--XX@@@@##....####@@@@@@@@++++XXooooooooXXXX;;;;;;;;**&&%%",
"%%&&**--XX@@@@##....####@@@@@@@@++++XXooooooooXXXX;;;;;;;;**&&%%",
"$$****XXXX++@@####..####@@@@@@++++XXooooooooXXXX==--;;;;;;--**%%",
"$$****XXXX++@@####..####@@@@@@++++XXooooooooXXXX==--;;;;;;--**%%",
"$$****XX++XX++@@@@@@##@@@@@@++++XXooooooXXXX====----::::;;****&&",
"$$****XX++XX++@@@@@@##@@@@@@++++XXooooooXXXX====----::::;;****&&",
"$$**XXOO++++XXXX@@@@@@@@@@++++XXooooooXXXX------====::::--**&&&&",
"$$**XXOO++++XXXX@@@@@@@@@@++++XXooooooXXXX------=== ::::--**&&&&",
"$$**XXOOOO++++++XX++++++++++XXooooooXX::::;;-------         &&$$",
"$$**XXOOOO++++++XX++++++++++XXooooooXX::::;;--------::::       $",
"$$**XXOOOOOOOOOO++XXXXXX++XXooooooXX;;::::::::;;;;;;::::::*    &",
"$$**XXOOOOOOOOOO++XXXXXX++XXooooooXX;;::::::::;;;;;;::::     &&&",
"&&&&**XXXXOOOOOOOO++++++XXooooooXX--;;::::::::::::::       ***$$",
"&&&&**XXXXOOOOOOOO++++++XXooooooXX--;;::::::::::        ;;****$$",
"$$&&****--XXOOOOOOOOOO++XXooooXX==----::::::::     :::;;----**%%",
"$$&&****--XXOOOOOOOOOO++XXooooXX==----::::::    ::::::;;----**%%",
"$$&&&&****--XXXXOOOOOOOOXXooXX********--;;        ----********%%",
"$$&&&&****--XXXXOOOOOOOOXXooXX********--;;:           ********%%",
"$$$$&&&&&&******XXXXXXOOXXXX**&&&&******------*         &&&&&&%%",
"$$$$&&&&&&******XXXXXXOOXXXX**&&&&******------****       &&&&&%%",
"$$$$&&$$&&**&&%%%%%%XXXXXXXX&&%%%%%%&&&&******&&&&&&&     $$&&%%",
"$$$$&&$$&&**&&%%%%%%XXXXXXXX&&%%%%%%&&&&******&&&&&&&&&&$$$$&&%%",
"&&&&$$$$$$$$$$$$$$$$$$$$$$$$$$$$$$$$$$$$$$**&&&&$$$$$$$$&&$$$$&&",
"&&&&$$$$$$$$$$$$$$$$$$$$$$$$$$$$$$$$$$$$$$**&&&&$$$$$$$$&&$$$$&&"
};
