/* XPM */
static char *exit[] = {
/* columns rows colors chars-per-pixel */
"64 64 4 1 ",
"  c #ED1C24",
". c #9C5A3C",
"X c #22B14C",
"o c #FFA3B1",
/* pixels */
"................................................................",
"................................................................",
"................................................................",
"...XXXXXXXXXXXXXXXXXXXXXXXXXXXXXXXXXXXXXXXXXXXXXXXXXXXXXXXXXX...",
"...XXXXXXXXXXXXXXXXXXXXXXXXXXXXXXXXXXXXXXXXXXXXXXXXXXXXXXXXXX...",
"...XXXXXXXXXXXXXXXXXXXXXXXXXXXXXXXXXXXXXXXXXXXXXXXXXXXXXXXXXX...",
"...XXXXXXXXXXXXXXXXXXXXXXXXXXXXXXXXXXXXXXXXXXXXXXXXXXXXXXXXXX...",
"...XXXXooooooooooooooooooooooooooooooooooooooooooooooooooXXXX...",
"...XXXXo                                                oXXXX...",
"...XXXXo                                                oXXXX...",
"...XXXXo                                                oXXXX...",
"...XXXXo                                                oXXXX...",
"...XXXXo                                                oXXXX...",
"...XXXXo                                                oXXXX...",
"...XXXXo                                                oXXXX...",
"...XXXXo                                                oXXXX...",
"...XXXXo                                                oXXXX...",
"...XXXXo                                                oXXXX...",
"...XXXXo                                                oXXXX...",
"...XXXXo                                                oXXXX...",
"...XXXXo                                                oXXXX...",
"...XXXXo                                                oXXXX...",
"...XXXXo                                                oXXXX...",
"...XXXXo                                                oXXXX...",
"...XXXXo                                                oXXXX...",
"...XXXXo                                                oXXXX...",
"...XXXXo                                                oXXXX...",
"...XXXXo                                                oXXXX...",
"...XXXXo                                                oXXXX...",
"...XXXXo                                                oXXXX...",
"...XXXXo                                                oXXXX...",
"...XXXXo                                                oXXXX...",
"...XXXXo                                                oXXXX...",
"...XXXXo                                                oXXXX...",
"...XXXXo                                                oXXXX...",
"...XXXXo                                                oXXXX...",
"...XXXXo                                                oXXXX...",
"...XXXXo                                                oXXXX...",
"...XXXXo                                                oXXXX...",
"...XXXXo                                                oXXXX...",
"...XXXXo                                                oXXXX...",
"...XXXXo                                                oXXXX...",
"...XXXXo                                                oXXXX...",
"...XXXXo                                                oXXXX...",
"...XXXXo                                                oXXXX...",
"...XXXXo                                                oXXXX...",
"...XXXXo                                                oXXXX...",
"...XXXXo                                                oXXXX...",
"...XXXXo                                                oXXXX...",
"...XXXXo                                                oXXXX...",
"...XXXXo                                                oXXXX...",
"...XXXXo                                                oXXXX...",
"...XXXXo                                                oXXXX...",
"...XXXXo                                                oXXXX...",
"...XXXXo                                                oXXXX...",
"...XXXXo                                                oXXXX...",
"...XXXXooooooooooooooooooooooooooooooooooooooooooooooooooXXXX...",
"...XXXXXXXXXXXXXXXXXXXXXXXXXXXXXXXXXXXXXXXXXXXXXXXXXXXXXXXXXX...",
"...XXXXXXXXXXXXXXXXXXXXXXXXXXXXXXXXXXXXXXXXXXXXXXXXXXXXXXXXXX...",
"...XXXXXXXXXXXXXXXXXXXXXXXXXXXXXXXXXXXXXXXXXXXXXXXXXXXXXXXXXX...",
"...XXXXXXXXXXXXXXXXXXXXXXXXXXXXXXXXXXXXXXXXXXXXXXXXXXXXXXXXXX...",
"................................................................",
"................................................................",
"................................................................"
};
