/* XPM */
static char *no_texture[] = {
/* columns rows colors chars-per-pixel */
"64 64 2 1 ",
"  c black",
". c #ED1C24",
/* pixels */
"                         ..............                         ",
"                     ......................                     ",
"                   ..........................                   ",
"                ................................                ",
"               .............        .............               ",
"             ...........                ...........             ",
"            ..........                    ..........            ",
"           ........                          ........           ",
"          ........                            ........          ",
"         .......                                .......         ",
"        .......                                  .......        ",
"       .......                                    .......       ",
"      .......                                     ........      ",
"     .......                                     ..........     ",
"     ......                                     ...........     ",
"    ......                                     .............    ",
"   ......                                     .......  ......   ",
"   ......                                    .......   ......   ",
"   .....                                    .......     .....   ",
"  .....                                    .......       .....  ",
"  .....                                  ........        .....  ",
" ......                                 ........         ...... ",
" .....                                 ........           ..... ",
" .....                                ........            ..... ",
" ....                                .......               .... ",
".....                               .......                .....",
".....                              .......                 .....",
".....                             .......                  .....",
"....                             .......                    ....",
"....                            .......                     ....",
"....                           .......                      ....",
"....                          .......                       ....",
"....                         .......                        ....",
"....                        .......                         ....",
"....                       .......                          ....",
"....                      .......                           ....",
".....                    .......                           .....",
".....                   .......                            .....",
".....                  .......                             .....",
" ....                 .......                              .... ",
" .....               .......                              ..... ",
" .....             ........                               ..... ",
" ......           ........                               ...... ",
"  .....          ........                                .....  ",
"  .....         ........                                 .....  ",
"   .....       .......                                  .....   ",
"   ......     .......                                  ......   ",
"   ......    .......                                   ......   ",
"    ......  .......                                   ......    ",
"     .............                                   ......     ",
"     ............                                   .......     ",
"      ..........                                   .......      ",
"       ........                                   .......       ",
"        .......                                  .......        ",
"         .......                                .......         ",
"          ........                            ........          ",
"           ........                          ........           ",
"            ..........                    ..........            ",
"             ...........                ...........             ",
"               .............        .............               ",
"                ................................                ",
"                   ..........................                   ",
"                     ......................                     ",
"                         ..............                         "
};
