/* XPM */
static char *player[] = {
/* columns rows colors chars-per-pixel */
"64 64 27 1 ",
"  c #0E0C0E",
". c #100E10",
"X c #121012",
"o c #141214",
"O c #181618",
"+ c #191619",
"@ c #1C181C",
"# c #1F1B1F",
"$ c #1E1E1F",
"% c #201E20",
"& c #221E22",
"* c #242224",
"= c #262426",
"- c #282628",
"; c #2C282C",
": c #302C30",
"> c #4F4F41",
", c #515143",
"< c #525244",
"1 c #555547",
"2 c #575749",
"3 c #59594B",
"4 c #5B5B4D",
"5 c #5E5E50",
"6 c #D91A24",
"7 c #ED1C24",
"8 c gray91",
/* pixels */
">>1111>>>>,,>><<<<<<,,,,,,,,>>>>>><<<<>>>>>>>>>><<<<<<<<<<>>>>>>",
">>1111>>>>,,>><<<<<<,,,,,,,,>>>>>><<<<>>>>>>>>>><<<<<<<<<<>>>>>>",
">>>>1111,,<<1111111111111111<<<<<<<<1111<<<<<<111111111111<<<<>>",
">>>>1111,,<<1111111111111111<<<<<,<<1111<<<<<<111111111111<<<<>>",
">>>><<111111111111111133221111++++1111111111++++333333331111<<>>",
">>>><<111111111111111133221111++++1111111111++++333333331111<<>>",
">>,,<<1111333333333322221111++&&&&3322112233----++555555441111<<",
">>,,<<1111333333333322221111++&&&&3322112233----++555555441111<<",
">>,,<<11334444443322111122++&&$$==3333221122--==--++5555441111<<",
">>,,<<11334444443322111122++&&$$==3333221122--==--++5555441111<<",
">>,,<<11335555&&33221122++&&****==;;442211;;======++3344331111<<",
">>,,<<11335555&&33221122++&&****==;;442211;;======++3344331111<<",
"1111<<113355&&&&22112233++****======;;::::;;======**22&&3311<<<<",
"1111<<113355&&&&22112233++****======;;::::;;======**22&&3311<<<<",
",,11<<1133++&&2211223333++====----==========--------2244&&11<<>>",
",,11<<1133++&&2211223333++====----==========--------2244&&11<<>>",
">>,,1111++++&&1111333344++====++----------------++--3355&&11<<,,",
">>,,1111++++&&1111333344++====++----------------++--3355&&11<<,,",
">>,,1111++XX&&22112233++****==--++++--------++++==--4455&&&&<<,,",
">>,,1111++XX&&22112233++****==--++++--------++++==--4455&&&&<<,,",
",,<<11&&XXXX&&332211++******==--7766++++--++++66====++55##&&<<,,",
",,<<11&&XXXX&&332211++******==--7766++++--++++66====++55##&&<<,,",
",,<<&&##XX####&&3322++$$****==--7766  66--66  66====++33##&&&&>>",
",,<<&&##XX####&&3322++$$****==--7766  66--66  66====++33##&&&&>>",
",,<<&&##XX##+#&&&&&&++$$****==----776677--7766--====++33####&&<<",
",,<<&&##XX####&&&&&&++$$****==----776677--7766--====++33++##&&<<",
",,<<####XX#####+####++$$****====----------------==**++&&##XX&&<<",
",,<<####XX#####+####++$$****====----------------==**++&&##XX&&<<",
",,&&####..++##++####++$$$$****======----------==**&&++####XX&&<<",
",,&&##++..++##++####++$$$$****======----------==**&&++####XX&&<<",
"11&&+#++X.++##++++##++$$$$******======88==88==****&&++##++XX##>>",
"11&&+#++XX++##+++###++$$$$******======88==88==****&*++##++XX##>>",
">>####++XX++++########++$$$$**********88==88******++##++++XX##>>",
">>####++XX++++########++$$$$**********88==88******++####++XX##>>",
">>####++..++++######&&Xo++$$$$******************++###+++XX####>>",
">>###+++..++++######&&oo++$$$$******************++####++XX####>>",
",,####++++XX++####&&ooXX..++++$$$$$$$$******++++##+#++++XX####,,",
",,####++++XX++####&&ooXX..++++$$$$$$$$******++++####++++XX####,,",
",,####++++++XX####&&ooXX....  ++++++++++++++++########XX+++###,,",
",,####++++++XX####&&ooXX....  ++++++++++++++++########X.++####,,",
",,####++++####XX&&22ooXX....        ....XXoo11&&######X.++####,,",
",,####++++####XX&&22ooXX....        .....Xoo11&&######XX++####,,",
">>##########&&&&&&11ooooXX....    ....XXXXXo2211&&##XX++++####,,",
">>####++####&&&&&&11ooooXX....    ....XXXXoo2211&&##XX++++####,,",
">>#####+##&&2211&&&&22ooXX............XXoo332222&&XX+#++++##&&<<",
">>########&&2211&&&&22ooXX............XXoo332222&&XX+#++++##&&<<",
">>&&######&&3322112233ooooXX......XXXXoooo3333&&&&##++######<<<<",
">>&&######&&3322112233ooooXX......XXXXoooo3333&&&&##++######<<<<",
">>&&######&&332222111122ooooXXXXXXoooooo5544333333##########<<>>",
">>&&######&&332222111122ooooXXXXXXoooooo5544333333##########<<>>",
">>11########33333322221111oooooooooooo555555554444&&######&&<<<<",
">>11########33333322221111oooooooooooo555555554444&&######&&<<<<",
"<<<<&&######&&4433223322111111223333445555555555&&###+++##1111>>",
"<<<<&&######&&4433223322111111223333445555555555&&##++++##1111>>",
">><<11&&######4433223333222222222233335555555555########&&3311,,",
">><<11&&######4433223333222222222233335555555555##&#####&&3311,,",
">><<<<&&######&&333333331111111111111133445544########&&111111,,",
">><<<<&&######&&333333331111111111111133445544########&&111111,,",
">>>><<<<<<&&&&##11111111111111<<<<1111113333########&&11<<<<<<,,",
">>>><<<<<<&&&&##11111111111111<<<<1111113333########&&11<<<<<<,,",
">>>><<>><<11<<&&&&,,<<<<,,<<<<,,,,,,<<<<11&&&&####&&<<<<>>>><<,,",
">>>><<>><<11<<&&&&,,<<<<,,<<<<,,,,,,<<<<11&&&&####&&<<<<>>>><<,,",
"<<<<>>>>>>>>>>>>>>>>>>>>>>>>>>>>>>>>>>>>>>11<<<<>>>>>>>><<>>>><<",
"<<<<>>>>>>>>>>>>>>>>>>>>>>>>>>>>>>>>>>>>>>11<<<<>>>>>>>><<>>>><<"
};
